src/icons/root-folder.svg

<svg width="16" height="16" viewBox="0 0 16 16" fill="none" xmlns="http://www.w3.org/2000/svg">
<path fill-rule="evenodd" clip-rule="evenodd" d="M1.51088 2L1.01088 2.5V6.24821C1.31813 5.99577 1.65324 5.77599 2.01088 5.59417V3H6.30003L7.15284 3.8528L7.50639 3.99925H14.0011V5.00311H7.50051L7.14696 5.14956L6.79588 5.50064C7.11148 5.64581 7.41098 5.81999 7.69096 6.01976L7.70762 6.00311H13.9903V7.49588H13.9906V11.4929H13.9903V13.0021H9.39924C9.21614 13.3599 8.99499 13.695 8.74114 14.0021H14.4903L14.9903 13.5021V9.00599L15.0011 8.99512V3.49925L14.5011 2.99925H7.7135L6.86069 2.14645L6.50714 2H1.51088Z" fill="#C5C5C5"/>
<path d="M6 10.5C6 11.3284 5.32843 12 4.5 12C3.67157 12 3 11.3284 3 10.5C3 9.67157 3.67157 9 4.5 9C5.32843 9 6 9.67157 6 10.5Z" fill="#C4C4C4"/>
<path fill-rule="evenodd" clip-rule="evenodd" d="M8 10.5C8 12.433 6.433 14 4.5 14C2.567 14 1 12.433 1 10.5C1 8.567 2.567 7 4.5 7C6.433 7 8 8.567 8 10.5ZM4.5 13C5.88071 13 7 11.8807 7 10.5C7 9.11929 5.88071 8 4.5 8C3.11929 8 2 9.11929 2 10.5C2 11.8807 3.11929 13 4.5 13Z" fill="#C4C4C4"/>
</svg>

<svg width="16" height="16" xmlns="http://www.w3.org/2000/svg"><path fill-rule="evenodd" clip-rule="evenodd" d="M1.51 2l-.5.5v3.748a5.507 5.507 0 0 1 1-.654V3H6.3l.853.853.353.146h6.495v1.004h-6.5l-.354.147-.351.35c.315.146.615.32.895.52l.017-.017h6.282v7H9.4a5.509 5.509 0 0 1-.659 1h5.75l.5-.5V9.005l.01-.01V3.498l-.5-.5H7.714l-.853-.853L6.507 2H1.511z"/><path d="M6 10.5a1.5 1.5 0 1 1-3 0 1.5 1.5 0 0 1 3 0z"/><path fill-rule="evenodd" clip-rule="evenodd" d="M8 10.5a3.5 3.5 0 1 1-7 0 3.5 3.5 0 0 1 7 0zM4.5 13a2.5 2.5 0 1 0 0-5 2.5 2.5 0 0 0 0 5z"/></svg>
